X:1
T: Lady Elisabeth Montague's Jig
C:R. Mackintosh
R:Jig
Q: 180
K:Am
M:6/8
L:1/8
|:e1/2d1/2|c3 ABc|BAB Eed|cBc ABc|d3 def|
ede cde|dcd Bcd|cde GAB|c3 c2:|
z|e3 afe|dcd ged|cBc fdc|BAB G2F|
EGc BAd|cBe dca|gcf efd|c3 c2f|
ede afe|dcd ged|cBc fdc|BAB Eed|
cBA dcB|edc fed|eae dcB|A3 A2||
